X: 2004
T: Saraband.
%R: saraband
B: Henry Playford "Apollo's Banquet", London 1687 (5th Edition)
F: https://archive.org/details/apollosbanquetco01rugg
Z: 2017 John Chambers <jc:trillian.mit.edu>
M: 3/2
L: 1/8
K: Dm
% - - - - - - - - - -
|:\
d4 a6 e2 |  f6 d2  c4 | d4 B6 A2 |  G8 A4 |\
d4 a6 e2 |  f6 d2  c4 | d4 B6 A2 | ^G8 A4 :|
|:\
e4 A6 e2 |  f6 d2  g4 | a4 c6 g2 | g8 f4 |\
c4 A6 d2 | =B6 e2 ^c4 | g4 f6 e2 | e8 d4 |]
% - - - - - - - - - -

%%sep 1 1 500
%%sep 1 1 500

